X:1
T:O Morning Star
T:O Morning Star
T:Philipp Nicolai, 1599; harmony by Bach
T:Public Domain Courtesy of the Cyber Hymnal™
C:Philipp Nicolai, 1599; harmony by Bach
Z:Public Domain
Z:Courtesy of the Cyber Hymnal™
%%score ( 1 2 ) ( 3 4 )
L:1/8
Q:1/4=108
M:4/4
K:D
V:1 treble 
V:2 treble 
V:3 bass 
V:4 bass 
V:1
 [A,D]2 | [A,A]2 [A,F]2 [B,D]2 [CA]2 | [FB]2 [EB]2 [EA]2 [FA]2 | [GB]2 [Gc]2 [Fd]2 c2 | %4
 B2 [^GB]2 [EA]2 [DF]2 | [DB]2 [DA]2 G2 [DF]2 | E4 !fermata![A,D]2 [A,D]2 | %7
 [A,A]2 [A,F]2 [B,D]2 [CA]2 | [FB]2 [EB]2 [EA]2 [FA]2 | [GB]2 [Gc]2 [Fd]2 c2 | %10
 B2 [^GB]2 [EA]2 [DF]2 | [DB]2 [DA]2 G2 [DF]2 | E4 [A,D]4 | [EA]4 [DF]4 | [EA]4 [DF]4 | %15
 [DF]2 [DF]2 [CE]2 [CE]2 | [DF]2 [DF]2 [CE]2 [^DF]2 | [EG]2 F2 E4 [A,D]4 [Fd]2 c2 | %18
 B2 [FA]2 G2 F2 | E4 [A,D]4 |] %20
V:2
 x2 | x8 | x8 | x6 EA | A2 x6 | x4 DC x2 | D2 C2 x4 | x8 | x8 | x6 EA | A2 x6 | x4 DC x2 | %12
 D2 C2 x4 | x8 | x8 | x8 | x8 | x2 DC B,2 C2 x4 FE x2 | DE x F E ED x | D2 C2 x4 |] %20
V:3
 [D,F,]2 | [C,E,]2 D,2 (F,^G,) A,2 | [D,A,]2 [E,^G,]2 [A,,C]2 [D,D]2 | %3
 [G,D]2 E2 ([F,A,][^G,B,]) [A,C]2 | (F,F) (ED) [A,,C]2 [D,A,]2 | G,2 [F,A,]2 B,G, [D,A,]2 | %6
 A,3 G, !fermata![D,F,]2 [D,F,]2 | [C,E,]2 (D,E,) (F,^G,) A,2 | [D,A,]2 [E,^G,]2 [A,,C]2 [D,D]2 | %9
 [G,C]2 E2 [F,A,][^G,B,] [A,C]2 | (F,F) (ED) [A,,C]2 [D,A,]2 | G,2 [F,A,]2 B,G, [D,A,]2 | %12
 A,3 G, [D,F,]4 | [C,A,]4 [D,A,]4 | [A,,C]4 [D,A,]4 | A,2 A,2 x4 | A,2 A,2 A,2 A,2 | %17
 (B,C) D2 [G,D]2 [D,F,]4 (F,^G,) [F,,^A,]2 x2 | [G,,B,]2 [A,,C]2 [B,,D][C,E] [D,A,]2 | %19
 [G,,B,]2 (A,G,) [D,F,]4 |] %20
V:4
 x2 | x4 B,,2 (F,E,) | x8 | x2 (F,E,) x4 | D,2 E,2 x4 | x4 E,2 x2 | A,,4 x4 | x4 B,,2 (F,E,) | x8 | %9
 x2 (F,E,) x4 | D,2 E,2 x4 | x4 E,2 x2 | A,,4 x4 | x8 | x8 | (D,E,) (F,G,) (A,B,) (A,G,) | %16
 (F,E,) (F,D,) (A,,A,) (G,F,) | E,2 B,^A, (A,^G,) x7 B,,2 x | x8 | x2 A,,2 x4 |] %20

